X:56
M:2/4
L:1/4
K:C
A A/G/ | E G/A/ | c B/A/ | B A | A/G/ E/D/ | E G/A/ | c B | A2 | A A/G/ | E G/A/ | c B/A/ | B A | A/G/ E/D/ | E G/A/ | c B | A2 | c d | e e | c B/A/ | B A | c d | e e/d/ | c B/A/ | B2 | A c/d/ | e e | c B/A/ | B A | !sintro!A/G/ E/D/ | E G/A/ | c B | A2 !eintro!|]
